src/assets/filled/CardTick.svg

<?xml version="1.0" encoding="UTF-8"?>
<svg width="24" height="24" viewBox="0 0 24 24" xmlns="http://www.w3.org/2000/svg">
 <path d="m19 15c-2.21 0-4 1.79-4 4 0 0.75 0.21 1.46 0.58 2.06 0.69 1.16 1.96 1.94 3.42 1.94s2.73-0.78 3.42-1.94c0.37-0.6 0.58-1.31 0.58-2.06 0-2.21-1.79-4-4-4zm2.07 3.57-2.13 1.97c-0.14 0.13-0.33 0.2-0.51 0.2-0.19 0-0.38-0.07-0.53-0.22l-0.99-0.99c-0.29-0.29-0.29-0.77 0-1.06s0.77-0.29 1.06 0l0.48 0.48 1.6-1.48c0.3-0.28 0.78-0.26 1.06 0.04s0.26 0.77-0.04 1.06z"/>
 <path d="m22 7.55v0.45c0 0.55-0.45 1-1 1h-18c-0.55 0-1-0.45-1-1v-0.46c0-2.29 1.85-4.14 4.14-4.14h11.71c2.29 0 4.15 1.86 4.15 4.15z"/>
 <path d="m2 11.5v4.96c0 2.29 1.85 4.14 4.14 4.14h6.26c0.58 0 1.08-0.49 1.03-1.07-0.14-1.53 0.35-3.19 1.71-4.51 0.56-0.55 1.25-0.97 2-1.21 1.25-0.4 2.46-0.35 3.53 0.01 0.65 0.22 1.33-0.25 1.33-0.94v-1.39c0-0.55-0.45-1-1-1h-18c-0.55 0.01-1 0.46-1 1.01zm6 5.75h-2c-0.41 0-0.75-0.34-0.75-0.75s0.34-0.75 0.75-0.75h2c0.41 0 0.75 0.34 0.75 0.75s-0.34 0.75-0.75 0.75z"/>
</svg>

<svg width="24" height="24" viewBox="0 0 24 24"  xmlns="http://www.w3.org/2000/svg">
<path d="M19 15C16.79 15 15 16.79 15 19C15 19.75 15.21 20.46 15.58 21.06C16.27 22.22 17.54 23 19 23C20.46 23 21.73 22.22 22.42 21.06C22.79 20.46 23 19.75 23 19C23 16.79 21.21 15 19 15ZM21.07 18.57L18.94 20.54C18.8 20.67 18.61 20.74 18.43 20.74C18.24 20.74 18.05 20.67 17.9 20.52L16.91 19.53C16.62 19.24 16.62 18.76 16.91 18.47C17.2 18.18 17.68 18.18 17.97 18.47L18.45 18.95L20.05 17.47C20.35 17.19 20.83 17.21 21.11 17.51C21.39 17.81 21.37 18.28 21.07 18.57Z" />
<path d="M22 7.55002V8.00002C22 8.55002 21.55 9.00002 21 9.00002H3C2.45 9.00002 2 8.55002 2 8.00002V7.54002C2 5.25002 3.85 3.40002 6.14 3.40002H17.85C20.14 3.40002 22 5.26002 22 7.55002Z" />
<path d="M2 11.5V16.46C2 18.75 3.85 20.6 6.14 20.6H12.4C12.98 20.6 13.48 20.11 13.43 19.53C13.29 18 13.78 16.34 15.14 15.02C15.7 14.47 16.39 14.05 17.14 13.81C18.39 13.41 19.6 13.46 20.67 13.82C21.32 14.04 22 13.57 22 12.88V11.49C22 10.94 21.55 10.49 21 10.49H3C2.45 10.5 2 10.95 2 11.5ZM8 17.25H6C5.59 17.25 5.25 16.91 5.25 16.5C5.25 16.09 5.59 15.75 6 15.75H8C8.41 15.75 8.75 16.09 8.75 16.5C8.75 16.91 8.41 17.25 8 17.25Z" />
</svg>
